src/pos-icons/format-align-right.svg

<svg height="24" viewBox="0 0 24 24" width="24" xmlns="http://www.w3.org/2000/svg"><path d="m3 3h18v2h-18zm6 4h12v2h-12zm-6 4h18v2h-18zm6 4h12v2h-12zm-6 4h18v2h-18z"/></svg>

<?xml version="1.0" encoding="UTF-8"?><!DOCTYPE svg PUBLIC "-//W3C//DTD SVG 1.1//EN" "http://www.w3.org/Graphics/SVG/1.1/DTD/svg11.dtd"><svg xmlns="http://www.w3.org/2000/svg" xmlns:xlink="http://www.w3.org/1999/xlink" version="1.1" id="mdi-format-align-right" width="24" height="24" viewBox="0 0 24 24"><path d="M3,3H21V5H3V3M9,7H21V9H9V7M3,11H21V13H3V11M9,15H21V17H9V15M3,19H21V21H3V19Z" /></svg>
